packages/design-assets/icons/24px/Report.svg

<?xml version="1.0" encoding="UTF-8"?>
<svg width="24px" height="24px" viewBox="0 0 24 24" version="1.1" xmlns="http://www.w3.org/2000/svg" xmlns:xlink="http://www.w3.org/1999/xlink">
    <!-- Generator: Sketch 54.1 (76490) - https://sketchapp.com -->
    <title>Icons/24px/Report</title>
    <desc>Created with Sketch.</desc>
    <g id="Icons/24px/Report" stroke="none" stroke-width="1" fill="none" fill-rule="evenodd">
        <path d="M11,8.17070571 C9.83480763,8.58254212 9,9.69378117 9,11 C9,12.6568542 10.3431458,14 12,14 C13.3062188,14 14.4174579,13.1651924 14.8292943,12 L11,12 L11,8.17070571 L11,8.17070571 Z M13,8.17070571 L13,10 L14.8292943,10 C14.5280094,9.14758655 13.8524134,8.47199063 13,8.17070571 L13,8.17070571 Z M11,2 L11,0 L13,0 L13,2 L22,2 L22,18 L24,18 L24,20 L16.4142136,20 L18.7071068,22.2928932 L17.2928932,23.7071068 L13.5857864,20 L13,20 L13,23 L11,23 L11,20 L10.4142136,20 L6.70710678,23.7071068 L5.29289322,22.2928932 L7.58578644,20 L0,20 L0,18 L2,18 L2,2 L11,2 Z M20,4 L4,4 L4,18 L20,18 L20,4 Z M12,16 C9.23857625,16 7,13.7614237 7,11 C7,8.23857625 9.23857625,6 12,6 C14.7614237,6 17,8.23857625 17,11 C17,13.7614237 14.7614237,16 12,16 Z" id="i-24-report" fill="#818F99"></path>
    </g>
</svg>

<svg width="24" height="24" xmlns="http://www.w3.org/2000/svg"><path d="M11 8.17A3.001 3.001 0 1 0 14.83 12H11V8.17zm2 0V10h1.83A3.008 3.008 0 0 0 13 8.17zM11 2V0h2v2h9v16h2v2h-7.586l2.293 2.293-1.414 1.414L13.586 20H13v3h-2v-3h-.586l-3.707 3.707-1.414-1.414L7.586 20H0v-2h2V2h9zm9 2H4v14h16V4zm-8 12a5 5 0 1 1 0-10 5 5 0 0 1 0 10z" fill="#818F99" fill-rule="evenodd"/></svg>
